assets/img/braze_icons/award-03.svg

<svg fill="none" height="24" viewBox="0 0 24 24" width="24" xmlns="http://www.w3.org/2000/svg"><path clip-rule="evenodd" d="m17.3345 3.83125c.0054.0117.0106.02355.0155.03553.0531.1284.1549.23047.2832.28383l1.3084.542c.6186.25623 1.11.74769 1.3662 1.36626.2563.61857.2563 1.31359 0 1.93216l-.5417 1.30799c-.0535.12908-.0532.27324-.0002.40041l.0009.00211.5405 1.30686c.127.3063.1924.6347.1924.9664.0001.3317-.0652.6601-.1921.9665s-.313.5848-.5475.8193c-.2345.2344-.5129.4203-.8192.5471l-1.3079.5418c-.1285.0532-.2313.1554-.2846.2838l-.1898.4584.8327 6.2768c.0505.3807-.1214.7566-.4423.9674s-.7342.2192-1.0635.0216l-4.4855-2.6913-4.48548 2.6913c-.32927.1976-.74259.1892-1.06353-.0217-.32095-.2108-.49282-.5868-.44226-.9674l.8333-6.2739-.19113-.4614c-.05306-.1283-.15509-.231-.28327-.2843l-1.30858-.5421c-.6183-.2561-1.10959-.7473-1.3659-1.3655-.2563-.6182-.25665-1.3129-.00096-1.9313l.54169-1.30785c.05299-.12846.05295-.27299-.0003-.40134l-.54111-1.31015c-.12685-.3062-.19242-.635-.19247-.96643-.00005-.33165.06524-.66006.19216-.96648.12691-.30641.31296-.58481.54751-.81929.23447-.23441.51283-.42033.81916-.54716l1.30795-.54179c.12823-.05302.2308-.15494.28422-.28302l.54175-1.30795c.25621-.61858.74765-1.11004 1.36622-1.36627.61857-.256227 1.31359-.256227 1.93213 0l1.3072.54146c.1284.05298.2729.05295.4012-.00031l1.3102-.54037.0009-.00038c.6183-.255701 1.3127-.255521 1.9309.00053.6184.25618 1.1098.7475 1.3661 1.36591zm-8.76922 13.97915-.30081 2.2648 2.80943-1.6857.0291-.0177c.1053-.0646.3237-.1985.5753-.2538.212-.0465.4315-.0465.6435 0 .2515.0553.4699.1892.5753.2538l.029.0177 2.8098 1.6859-.3006-2.2656c-.6173.2541-1.3102.2534-1.9271-.0021l-1.3071-.5415c-.1285-.053-.2729-.0529-.4013.0003l-1.3099.5419c-.61616.2548-1.30811.2554-1.92462.002z" fill="#801ed7" fill-rule="evenodd"/></svg>

<svg width="24" height="24" viewBox="0 0 24 24" fill="none" xmlns="http://www.w3.org/2000/svg">
<path fill-rule="evenodd" clip-rule="evenodd" d="M17.3345 3.83125C17.3399 3.84295 17.3451 3.8548 17.35 3.86678C17.4031 3.99518 17.5049 4.09725 17.6332 4.15061L18.9416 4.69261C19.5602 4.94884 20.0516 5.4403 20.3078 6.05887C20.5641 6.67744 20.5641 7.37246 20.3078 7.99103L19.7661 9.29902C19.7126 9.4281 19.7129 9.57226 19.7659 9.69943L19.7668 9.70154L20.3073 11.0084C20.4343 11.3147 20.4997 11.6431 20.4997 11.9748C20.4998 12.3065 20.4345 12.6349 20.3076 12.9413C20.1807 13.2477 19.9946 13.5261 19.7601 13.7606C19.5256 13.995 19.2472 14.1809 18.9409 14.3077L17.633 14.8495C17.5045 14.9027 17.4017 15.0049 17.3484 15.1333L17.1586 15.5917L17.9913 21.8685C18.0418 22.2492 17.8699 22.6251 17.549 22.8359C17.2281 23.0467 16.8148 23.0551 16.4855 22.8575L12 20.1662L7.51452 22.8575C7.18525 23.0551 6.77193 23.0467 6.45099 22.8358C6.13004 22.625 5.95817 22.249 6.00873 21.8684L6.84203 15.5945L6.6509 15.1331C6.59784 15.0048 6.49581 14.9021 6.36763 14.8488L5.05905 14.3067C4.44075 14.0506 3.94946 13.5594 3.69315 12.9412C3.43685 12.323 3.4365 11.6283 3.69219 11.0099L4.23388 9.70205C4.28687 9.57359 4.28683 9.42906 4.23358 9.30071L3.69247 7.99056C3.56562 7.68436 3.50005 7.35556 3.5 7.02413C3.49995 6.69248 3.56524 6.36407 3.69216 6.05765C3.81907 5.75124 4.00512 5.47284 4.23967 5.23836C4.47414 5.00395 4.7525 4.81803 5.05883 4.6912L6.36678 4.14941C6.49501 4.09639 6.59758 3.99447 6.651 3.86639L7.19275 2.55844C7.44896 1.93986 7.9404 1.4484 8.55897 1.19217C9.17754 0.935943 9.87256 0.935943 10.4911 1.19217L11.7983 1.73363C11.9267 1.78661 12.0712 1.78658 12.1995 1.73332L13.5097 1.19295L13.5106 1.19257C14.1289 0.936869 14.8233 0.937049 15.4415 1.1931C16.0599 1.44928 16.5513 1.9406 16.8076 2.55901L17.3345 3.83125ZM8.56528 17.8104L8.26447 20.0752L11.0739 18.3895L11.103 18.3718C11.2083 18.3072 11.4267 18.1733 11.6783 18.118C11.8903 18.0715 12.1098 18.0715 12.3218 18.118C12.5733 18.1733 12.7917 18.3072 12.8971 18.3718L12.9261 18.3895L15.7359 20.0754L15.4353 17.8098C14.818 18.0639 14.1251 18.0632 13.5082 17.8077L12.2011 17.2662C12.0726 17.2132 11.9282 17.2133 11.7998 17.2665L10.4899 17.8084C9.87374 18.0632 9.18179 18.0638 8.56528 17.8104Z" fill="#801ED7"/>
</svg>
